!!!OTL: "Der Blick" MEIN SCHAZZERL HAD BRAUNI AUGEN
!!!ARE: Europa, Mitteleuropa, Oesterreich
!!!SCT: Z1239
!!!YEM: Copyright 1995, estate of Helmut Schaffrath.
**kern
*ICvox
*Ivox
*M3/4
*k[f#]
*G:
{4dd
=1
8ee#
8ff#
4cc
4a
=2
8ff#
8gg
4b
4g}
=3
{8b
8cc
4f#
4d
=4
4g}
{4b
4dd
=5
8ee#
8ff#
4cc
4a
=6
8ff#
8gg}
{4b
4g
=7
8b
8cc
4f#
4d
=8
2g}
==
!!!AGN: Liebes - Lied
!!!ONB: ESAC (Essen Associative Code) Database: ZUCCAL
!!!AMT: simple triple
!!!AIN: vox
!!!EED: Helmut Schaffrath
!!!EEV: 1.0
*-
